X:1
T:The One Thing or The Other
M:6/8
L:1/4
K:A
 E E/2| A A/2 A A/2| A3/2 C D/2| E F/2 E C/2| E3/2- E B/2| c c/2| c c/2|\
 c3/2 A A/2| B/2 B c B/2| A3/2- A E/2| A/2 A A B/2| A3/2| C D/2| E/2E/2E/2 E E/2|\
 E/2 c c B/2| A A/2 A A/2| A G/2 F E/2| F G/2| A B/2| A G/2 F G/2|\
 A C/2 C D/2| E3/2 E3/2| F3/2 F E/2| F G/2| A B/2| A C/2 C D/2| E3/2 E3/2|\
 F3/2 B G/2| A3/2||
